!!!!SEGMENT: pl-cz--iii-666--001-008_scigalski-franciszek--missa-in-c-sanctus.krn
!!!cenid: 18xx:1091
!!!COM: Ścigalski, Franciszek
!!!COM-rismID: pe30002948
!!!CDT: 1782/01/29-1846/09/27
!!!CNT: Polish
!!!OPR: Missa in C
!!!OTL: Sanctus
!!!OMV: 008
!!!PDT:
!!!AGN: Sacred; Mass
!!!SMS-siglum: PL-CZ
!!!SMS-shelfmark: III-666
!!!SMS-shelfwork: 001-008 M
!!!SMS-variant:
!!!SMS-altvar:
!!!NIFC-rismSourceID: 300001312
!!!NIFC-rismChildID: 300001312
!!!NIFC-islandoraID: pl-cz:39667
!!!URL-pdf-islandora: https://repozytorium.nifc.pl/islandora/object/pl-cz%3A39667/datastream/PDF/view
!!!URL-scan:
!!!ONB-nifc: UWAGA: części Mszy: Kyrie, Gloria, Qui tollis, Quoniam, Credo, Et incarnatus, Et resurrexit, Sanctus, Pleni sunt, Benedictus, Agnus Dei, Dona nobis. UWAGA: „Amen” częścią „Quoniam”
!!!OMD: Adagio
!!!AIN: 1 alto 2 clars 2 cor 2 empty 2 fagot 2 flt 1 organ 1 tenor 1 timpa 1 viola 2 violn 1 vox
!!!key:
**kern	**dynam	**fba	**kern	**dynam	**kern	**dynam	**kern	**dynam	**kern	**text	**kern	**text	**kern	**text	**kern	**text	**kern	**dynam	**kern	**dynam	**kern	**kern	**dynam	**kern	**dynam	**kern	**dynam	**kern	**dynam	**kern	**dynam	**kern	**dynam	**kern	**dynam
*group6	*	*	*group5	*	*group5	*	*group5	*	*group4	*	*group4	*	*group4	*	*group4	*	*group3	*	*group2	*	*group2	*group2	*	*group1	*	*group1	*	*group1	*	*group1	*	*group1	*	*group1	*
*part18	*part18	*part18	*part17	*part17	*part16	*part16	*part15	*part15	*part14	*part14	*part13	*part13	*part12	*part12	*part11	*part11	*part10	*part10	*part9	*part9	*part8	*part7	*part7	*part6	*part6	*part5	*part5	*part4	*part4	*part3	*part3	*part2	*part2	*part1	*part1
*staff18	*	*	*staff17	*	*staff16	*	*staff15	*	*staff14	*staff14	*staff13	*staff13	*staff12	*staff12	*staff11	*staff11	*staff10	*	*staff9	*	*staff8	*staff7	*	*staff6	*	*staff5	*	*staff4	*	*staff3	*	*staff2	*	*staff1	*
*Iorgan	*	*	*Iviola	*	*Ivioln	*	*Ivioln	*	*Iempty	*	*Itenor	*	*Ialto	*	*Ivox	*	*Itimpa	*	*Iempty	*	*Icor	*Icor	*	*Ifagot	*	*Ifagot	*	*Iclars	*	*Iclars	*	*Iflt	*	*Iflt	*
*I"Organo.	*	*	*I"Viola.	*	*I"Violino Secondo	*	*I"Violino Primo.	*	*I"Bafsso!	*	*I"Tenore.	*	*I"Alto	*	*I"Canto	*	*I"Tympano in C.G.	*	*I"Clarino Prinpalo in C.	*	*I"Corno Secundo in G	*I"Corno Primo in G	*	*I"Fagotto Secondo.	*	*I"Fagotto Primo.	*	*I"Clarinetto Secondo in C.	*	*I"Clarinetto Primo in C	*	*I"Flauto Secondo.	*	*I"Flauto Primo.	*
*I'[Org]	*	*	*I'[Vla]	*	*I'[Vl 2]	*	*I'[Vl 1]	*	*I'[B]	*	*I'[T]	*	*I'[A]	*	*I'[S]	*	*I'[Timp in C.G.]	*	*I'[Clno. Pr. in C].	*	*I'[Cor 2 in G]	*I'[Cor 1 in G]	*	*I'[Fag 2]	*	*I'[Fag 1]	*	*I'[Cl 2 in C]	*	*I'[Cl 1 in C]	*	*I'[Fl 2]	*	*I'[Fl 1]	*
*clefF4	*	*	*clefC3	*	*clefG2	*	*clefG2	*	*clefF4	*	*clefC4	*	*clefC3	*	*clefC1	*	*clefF4	*	*clefG2	*	*clefG2	*clefG2	*	*clefF4	*	*clefF4	*	*clefG2	*	*clefG2	*	*clefG2	*	*clefG2	*
*k[]	*	*	*k[]	*	*k[]	*	*k[]	*	*k[]	*	*k[]	*	*k[]	*	*k[]	*	*k[]	*	*k[]	*	*k[]	*k[]	*	*k[]	*	*k[]	*	*k[]	*	*k[]	*	*k[]	*	*k[]	*
*C:	*	*	*C:	*	*C:	*	*C:	*	*C:	*	*C:	*	*C:	*	*C:	*	*C:	*	*C:	*	*C:	*C:	*	*C:	*	*C:	*	*C:	*	*C:	*	*C:	*	*C:	*
*M2/2	*	*	*M2/2	*	*M2/2	*	*M2/2	*	*M2/2	*	*M2/2	*	*M2/2	*	*M2/2	*	*M2/2	*	*M2/2	*	*M2/2	*M2/2	*	*M2/2	*	*M2/2	*	*M2/2	*	*M2/2	*	*M2/2	*	*M2/2	*
*met(c|)	*	*	*met(c|)	*	*met(c|)	*	*met(c|)	*	*met(c|)	*	*met(c|)	*	*met(c|)	*	*met(c|)	*	*met(c|)	*	*met(c|)	*	*met(c|)	*met(c|)	*	*met(c|)	*	*met(c|)	*	*met(c|)	*	*met(c|)	*	*met(c|)	*	*met(c|)	*
=1	=1	=1	=1	=1	=1	=1	=1	=1	=1	=1	=1	=1	=1	=1	=1	=1	=1	=1	=1	=1	=1	=1	=1	=1	=1	=1	=1	=1	=1	=1	=1	=1	=1	=1	=1
!	!	!	!	!	!	!	!	!	!	!	!	!	!	!	!	!	!	!	!	!	!	!LO:TX:a:i:t=in C	!	!	!	!	!	!	!	!	!	!	!	!	!
*all\right	*	*	*all\right	*	*Xtuplet	*	*	*	*	*	*	*	*	*	*	*	*	*	*	*	*	*2\right	*	*	*	*	*	*	*	*	*	*	*	*	*
!LO:TX:t=P:problem=all\right&colon; global	!	!	!LO:TX:t=P:problem=all\right&colon; global	!	!	!	!	!LO:DY:b:rj:t=p.	!	!	!	!	!	!	!	!	!	!	!	!	!LO:TX:a:i:t=in C	!LO:N:vis=2	!	!	!	!	!	!	!	!LO:TX:t=P:problem=skreślona cauda	!LO:DY:rj:t=p.	!	!	!	!
!	!	!	!LO:TUP:a:problem=klamra łukowa	!LO:DY:b:rj	!LO:TUP:b:problem=klamra łukowa	!LO:DY:b:rj:t=p.	!	!	!	!	!	!	!	!	!	!	!	!	!	!	!	!	!LO:DY:rj	!	!LO:DY:rj:t=p	!	!LO:DY:rj:t=p.	!	!LO:DY:rj:t=p.	!	!	!	!LO:DY:rj:t=p.	!	!
4c\	.	6 5_ 3_	12c\L	p	12e/L	p	12cc'>\L	p	1C	San-	1B-X	San-	1g	San-	1ee	San-	1r	.	1r	.	1c	1cc	p	1G	p	1e	p	1gg	p	1bb-X	p	1gg	p	1eee	p
.	.	7_ x_ x_	12c\	.	12g/^<	.	12ee'>\	.	.	.	.	.	.	.	.	.	.	.	.	.	.	.	.	.	.	.	.	.	.	.	.	.	.	.	.
.	.	.	12c\J	.	12f/J	.	12dd'>\J	.	.	.	.	.	.	.	.	.	.	.	.	.	.	.	.	.	.	.	.	.	.	.	.	.	.	.	.
*	*	*	*tremolo	*	*	*	*	*	*	*	*	*	*	*	*	*	*	*	*	*	*	*	*	*	*	*	*	*	*	*	*	*	*	*	*
*	*	*	*	*	*	*	*Xtuplet	*	*	*	*	*	*	*	*	*	*	*	*	*	*	*	*	*	*	*	*	*	*	*	*	*	*	*	*
!	!	!	!LO:TUP:a:problem=klamra łukowa	!	!LO:TUP:b:problem=klamra łukowa	!	!	!	!	!	!	!	!	!	!	!	!	!	!	!	!	!	!	!	!	!	!	!	!	!	!	!	!	!	!
4G\	.	.	12c\L	.	12e/L	.	12cc'>\L	.	.	.	.	.	.	.	.	.	.	.	.	.	.	.	.	.	.	.	.	.	.	.	.	.	.	.	.
.	.	.	12c	.	12b-X/^<	.	12gg'>\	.	.	.	.	.	.	.	.	.	.	.	.	.	.	.	.	.	.	.	.	.	.	.	.	.	.	.	.
.	.	.	.	.	.	.	.	.	.	.	.	.	.	.	.	.	.	.	.	.	.	.	.	.	.	.	.	.	.	.	.	.	.	.	.
.	.	.	12cJ	.	12a/J	.	12ff'>\J	.	.	.	.	.	.	.	.	.	.	.	.	.	.	.	.	.	.	.	.	.	.	.	.	.	.	.	.
!	!	!	!LO:TUP:a:problem=klamra łukowa	!	!LO:TUP:b:problem=klamra łukowa	!	!	!	!	!	!	!	!	!	!	!	!	!	!	!	!	!	!	!	!	!	!	!	!	!	!	!	!	!	!
4E\	.	.	12c\L	.	12g/L	.	12ee'>\L	.	.	.	.	.	.	.	.	.	.	.	.	.	.	.	.	.	.	.	.	.	.	.	.	.	.	.	.
.	.	.	12c	.	12f/^<	.	12dd'>\	.	.	.	.	.	.	.	.	.	.	.	.	.	.	.	.	.	.	.	.	.	.	.	.	.	.	.	.
.	.	.	.	.	.	.	.	.	.	.	.	.	.	.	.	.	.	.	.	.	.	.	.	.	.	.	.	.	.	.	.	.	.	.	.
.	.	.	12cJ	.	12g/J	.	12ee'>\J	.	.	.	.	.	.	.	.	.	.	.	.	.	.	.	.	.	.	.	.	.	.	.	.	.	.	.	.
!	!	!	!LO:TUP:a:problem=klamra łukowa	!	!LO:TUP:b:problem=klamra łukowa	!	!	!	!	!	!	!	!	!	!	!	!	!	!	!	!	!	!	!	!	!	!	!	!	!	!	!	!	!	!
4C/	.	.	12c\L	.	12e/L	.	12cc'>\L	.	.	.	.	.	.	.	.	.	.	.	.	.	.	.	.	.	.	.	.	.	.	.	.	.	.	.	.
.	.	.	12c	.	12f/^<	.	12dd'>\	.	.	.	.	.	.	.	.	.	.	.	.	.	.	.	.	.	.	.	.	.	.	.	.	.	.	.	.
.	.	.	.	.	.	.	.	.	.	.	.	.	.	.	.	.	.	.	.	.	.	.	.	.	.	.	.	.	.	.	.	.	.	.	.
.	.	.	12cJ	.	12g/J	.	12ee'>\J	.	.	.	.	.	.	.	.	.	.	.	.	.	.	.	.	.	.	.	.	.	.	.	.	.	.	.	.
=2	=2	=2	=2	=2	=2	=2	=2	=2	=2	=2	=2	=2	=2	=2	=2	=2	=2	=2	=2	=2	=2	=2	=2	=2	=2	=2	=2	=2	=2	=2	=2	=2	=2	=2	=2
*	*	*	*Xtremolo	*	*Xtuplet	*	*	*	*	*	*	*	*	*	*	*	*	*	*	*	*	*	*	*	*	*	*	*	*	*	*	*	*	*	*
!	!LO:DY:rj:b:t=pia	!	!LO:TUP:a:problem=klamra łukowa	!	!	!	!	!	!	!	!	!	!	!	!	!	!LO:TX:a:t=4.	!	!LO:TX:b:t=4-fo-:rj	!	!	!	!	!	!	!	!	!	!	!LO:TX:t=P:problem=skreślona cauda	!	!	!	!	!
4F\	p	8_ 5_ 3_	12c\L	.	12a\L	.	12ff'>\L	.	1F	-ctus	1c	-ctus.	1a	-ctus	1ff	-ctus	1r	.	1r	.	1c	1cc	.	1A	.	1f	.	1ff	.	1aa	.	1aa	.	1fff	.
.	.	.	12c\	.	12cc\	.	12aa'>\	.	.	.	.	.	.	.	.	.	.	.	.	.	.	.	.	.	.	.	.	.	.	.	.	.	.	.	.
.	.	.	12c\J	.	12b-X\J	.	12gg'>\J	.	.	.	.	.	.	.	.	.	.	.	.	.	.	.	.	.	.	.	.	.	.	.	.	.	.	.	.
*	*	*	*tremolo	*	*	*	*	*	*	*	*	*	*	*	*	*	*	*	*	*	*	*	*	*	*	*	*	*	*	*	*	*	*	*	*
!	!	!	!LO:TUP:a:problem=klamra łukowa	!	!LO:TX:t=P:problem=all\right&colon; global	!	!	!	!	!	!	!	!	!	!	!	!	!	!	!	!	!	!	!	!	!	!	!	!	!	!	!	!	!	!
4c\	.	.	12c\L	.	4a\	.	12ff'>\L	.	.	.	.	.	.	.	.	.	.	.	.	.	.	.	.	.	.	.	.	.	.	.	.	.	.	.	.
.	.	.	12c\	.	.	.	12ccc'>\	.	.	.	.	.	.	.	.	.	.	.	.	.	.	.	.	.	.	.	.	.	.	.	.	.	.	.	.
.	.	.	.	.	.	.	.	.	.	.	.	.	.	.	.	.	.	.	.	.	.	.	.	.	.	.	.	.	.	.	.	.	.	.	.
.	.	.	12c\J	.	.	.	12bb-X'>\J	.	.	.	.	.	.	.	.	.	.	.	.	.	.	.	.	.	.	.	.	.	.	.	.	.	.	.	.
!	!	!	!	!	!LO:LB:g=original	!	!	!	!	!	!	!	!	!	!	!	!	!	!	!	!	!	!	!	!	!	!	!	!	!	!	!	!	!	!
!	!	!	!LO:TUP:a:problem=klamra łukowa	!	!LO:TUP:a:problem=klamra łukowa	!	!	!	!	!	!	!	!	!	!	!	!	!	!	!	!	!	!	!	!	!	!	!	!	!	!	!	!	!	!
4A\	.	.	12c\L	.	12a\L	.	12aa'>\L	.	.	.	.	.	.	.	.	.	.	.	.	.	.	.	.	.	.	.	.	.	.	.	.	.	.	.	.
.	.	.	12c\	.	12b-\^>	.	12gg'>\	.	.	.	.	.	.	.	.	.	.	.	.	.	.	.	.	.	.	.	.	.	.	.	.	.	.	.	.
.	.	.	.	.	.	.	.	.	.	.	.	.	.	.	.	.	.	.	.	.	.	.	.	.	.	.	.	.	.	.	.	.	.	.	.
.	.	.	12c\J	.	12a\J	.	12ff'>\J	.	.	.	.	.	.	.	.	.	.	.	.	.	.	.	.	.	.	.	.	.	.	.	.	.	.	.	.
!	!	!	!LO:TUP:a:problem=klamra łukowa	!	!LO:TUP:b:problem=klamra łukowa	!	!	!	!	!	!	!	!	!	!	!	!	!	!	!	!	!	!	!	!	!	!	!	!	!	!	!	!	!	!
4F\	.	.	12c\L	.	12g/L	.	12ee'>\L	.	.	.	.	.	.	.	.	.	.	.	.	.	.	.	.	.	.	.	.	.	.	.	.	.	.	.	.
.	.	.	12c\	.	12f/^<	.	12dd'>\	.	.	.	.	.	.	.	.	.	.	.	.	.	.	.	.	.	.	.	.	.	.	.	.	.	.	.	.
.	.	.	.	.	.	.	.	.	.	.	.	.	.	.	.	.	.	.	.	.	.	.	.	.	.	.	.	.	.	.	.	.	.	.	.
.	.	.	12c\J	.	12e/J	.	12cc'>\J	.	.	.	.	.	.	.	.	.	.	.	.	.	.	.	.	.	.	.	.	.	.	.	.	.	.	.	.
=3	=3	=3	=3	=3	=3	=3	=3	=3	=3	=3	=3	=3	=3	=3	=3	=3	=3	=3	=3	=3	=3	=3	=3	=3	=3	=3	=3	=3	=3	=3	=3	=3	=3	=3	=3
*	*	*	*Xtremolo	*	*	*	*	*	*	*ij	*	*	*	*ij	*	*ij	*	*	*	*	*	*	*	*	*	*	*	*	*	*	*	*	*	*	*
!	!	!	!LO:TUP:a:problem=klamra łukowa	!	!LO:TUP:b:problem=klamra łukowa	!	!	!	!	!	!	!	!	!	!	!	!	!	!	!	!	!	!	!	!	!	!	!	!	!	!	!	!	!	!
4G\	.	7_ 5_ 3_	12d\L	.	12d/L	.	12bn'>\L	.	1G	San-	1Bn	San-	1f	San-	1dd	San-	1r	.	1r	.	1g	1dd	.	1F	.	1d	.	1dd	.	1ff	.	1ff	.	1ddd	.
.	.	.	12d\	.	12f/^<	.	12dd'>\	.	.	.	.	.	.	.	.	.	.	.	.	.	.	.	.	.	.	.	.	.	.	.	.	.	.	.	.
.	.	.	12d\J	.	12e/J	.	12cc'>\J	.	.	.	.	.	.	.	.	.	.	.	.	.	.	.	.	.	.	.	.	.	.	.	.	.	.	.	.
*	*	*	*tremolo	*	*	*	*	*	*	*	*	*	*	*	*	*	*	*	*	*	*	*	*	*	*	*	*	*	*	*	*	*	*	*	*
!	!	!	!LO:TUP:a:problem=klamra łukowa	!	!	!	!	!	!	!	!	!	!	!	!	!	!	!	!	!	!	!	!	!	!	!	!	!	!	!	!	!	!	!	!
4D\	.	.	12d\L	.	12d/L	.	12b'>\L	.	.	.	.	.	.	.	.	.	.	.	.	.	.	.	.	.	.	.	.	.	.	.	.	.	.	.	.
.	.	.	12d	.	12bn/	.	12gg'>\	.	.	.	.	.	.	.	.	.	.	.	.	.	.	.	.	.	.	.	.	.	.	.	.	.	.	.	.
.	.	.	.	.	.	.	.	.	.	.	.	.	.	.	.	.	.	.	.	.	.	.	.	.	.	.	.	.	.	.	.	.	.	.	.
.	.	.	12dJ	.	12dd/J	.	12ff'>\J	.	.	.	.	.	.	.	.	.	.	.	.	.	.	.	.	.	.	.	.	.	.	.	.	.	.	.	.
!	!	!	!	!	!	!	!LO:LB:g=original	!	!	!	!	!	!	!	!	!	!	!	!	!	!	!	!	!	!	!	!	!	!	!	!	!	!	!	!
!	!	!	!LO:TUP:a:problem=klamra łukowa	!	!	!	!	!	!	!	!	!	!	!	!	!	!	!	!	!	!	!	!	!	!	!	!	!	!	!	!	!	!	!	!
4BBn/	.	.	12d\L	.	12cc\L	.	12ee'>\L	.	.	.	.	.	.	.	.	.	.	.	.	.	.	.	.	.	.	.	.	.	.	.	.	.	.	.	.
.	.	.	12d	.	12b\	.	12dd'>\	.	.	.	.	.	.	.	.	.	.	.	.	.	.	.	.	.	.	.	.	.	.	.	.	.	.	.	.
.	.	.	.	.	.	.	.	.	.	.	.	.	.	.	.	.	.	.	.	.	.	.	.	.	.	.	.	.	.	.	.	.	.	.	.
.	.	.	12dJ	.	12a\J	.	12cc'>\J	.	.	.	.	.	.	.	.	.	.	.	.	.	.	.	.	.	.	.	.	.	.	.	.	.	.	.	.
!	!	!	!LO:TUP:a:problem=klamra łukowa	!	!	!	!	!	!	!	!	!	!	!	!	!	!	!	!	!	!	!	!	!	!	!	!	!	!	!	!	!	!	!	!
4GG/	.	.	12d\L	.	12g\L	.	12b'>\L	.	.	.	.	.	.	.	.	.	.	.	.	.	.	.	.	.	.	.	.	.	.	.	.	.	.	.	.
.	.	.	12d	.	12a\	.	12cc'>\	.	.	.	.	.	.	.	.	.	.	.	.	.	.	.	.	.	.	.	.	.	.	.	.	.	.	.	.
.	.	.	.	.	.	.	.	.	.	.	.	.	.	.	.	.	.	.	.	.	.	.	.	.	.	.	.	.	.	.	.	.	.	.	.
.	.	.	12dJ	.	12b\J	.	12dd'>\J	.	.	.	.	.	.	.	.	.	.	.	.	.	.	.	.	.	.	.	.	.	.	.	.	.	.	.	.
=4	=4	=4	=4	=4	=4	=4	=4	=4	=4	=4	=4	=4	=4	=4	=4	=4	=4	=4	=4	=4	=4	=4	=4	=4	=4	=4	=4	=4	=4	=4	=4	=4	=4	=4	=4
*	*	*	*Xtremolo	*	*	*	*	*	*	*	*	*	*	*	*	*	*	*	*	*	*	*	*	*	*	*	*	*	*	*	*	*	*	*	*
!LO:TUP:a:problem=klamra łukowa	!	!	!LO:TUP:a:problem=klamra łukowa	!	!	!	!	!	!	!	!	!	!	!	!	!	!	!	!	!	!	!LO:TX:t=P:problem=all\right&colon; global	!	!	!	!	!	!LO:TX:t=P:problem=all\right&colon; global	!	!LO:TX:t=P:problem=all\right&colon; global	!	!LO:TX:t=P:problem=all\right&colon; global	!	!	!
12C`>\L	.	X X 3	12c\L	.	4cc\	.	4ee\	.	4C/	-ctus	4c\	-ctus	4e\	-ctus	4cc\	-ctus	1r	.	1r	.	4e/	4cc\	.	4E\	.	4c\	.	4cc\	.	4ee\	.	4ee\	.	4ccc\	.
*	*	*	*	*	*	*	*	*	*	*Xij	*	*	*	*Xij	*	*Xij	*	*	*	*	*	*	*	*	*	*	*	*	*	*	*	*	*	*	*
!	!LO:HP:a	!	!	!	!	!	!	!	!	!	!	!	!	!	!	!	!	!	!	!	!	!	!	!	!	!	!	!	!	!	!	!	!	!	!
12C\	<	.	12c\	.	.	.	.	.	.	.	.	.	.	.	.	.	.	.	.	.	.	.	.	.	.	.	.	.	.	.	.	.	.	.	.
12C`>\J	.	.	12c\J	.	.	.	.	.	.	.	.	.	.	.	.	.	.	.	.	.	.	.	.	.	.	.	.	.	.	.	.	.	.	.	.
!LO:TUP:a:problem=klamra łukowa	!	!	!LO:TUP:a:problem=klamra łukowa	!	!	!	!	!	!	!	!	!	!	!	!	!	!	!	!	!	!	!	!	!	!	!	!	!	!	!	!	!	!	!	!
12C`>\L	.	.	12c\L	.	4r	.	4r	.	4r	.	4r	.	4r	.	4r	.	.	.	.	.	4r	4r	.	4r	.	4r	.	4r	.	4r	.	4r	.	4r	.
12D`>\	.	.	12d\	.	.	.	.	.	.	.	.	.	.	.	.	.	.	.	.	.	.	.	.	.	.	.	.	.	.	.	.	.	.	.	.
12E`>\J	.	.	12e\J	.	.	.	.	.	.	.	.	.	.	.	.	.	.	.	.	.	.	.	.	.	.	.	.	.	.	.	.	.	.	.	.
!LO:TUP:a:problem=klamra łukowa	!	!	!LO:TUP:a:problem=klamra łukowa	!	!	!	!	!	!	!	!	!	!	!	!	!	!	!	!	!	!	!	!	!	!	!	!	!	!	!	!	!	!	!	!
12F`>\L	.	.	12f\L	.	2r	.	2r	.	2r	.	2r	.	2r	.	2r	.	.	.	.	.	2r	2r	.	2r	.	2r	.	2r	.	2r	.	2r	.	2r	.
12E`>\	.	.	12e\	.	.	.	.	.	.	.	.	.	.	.	.	.	.	.	.	.	.	.	.	.	.	.	.	.	.	.	.	.	.	.	.
12F`>\J	[	.	12f\J	.	.	.	.	.	.	.	.	.	.	.	.	.	.	.	.	.	.	.	.	.	.	.	.	.	.	.	.	.	.	.	.
!LO:TUP:a:problem=klamra łukowa	!	!	!LO:TUP:a:problem=klamra łukowa	!	!	!	!	!	!	!	!	!	!	!	!	!	!	!	!	!	!	!	!	!	!	!	!	!	!	!	!	!	!	!	!
12E`>\L	.	.	12e\L	.	.	.	.	.	.	.	.	.	.	.	.	.	.	.	.	.	.	.	.	.	.	.	.	.	.	.	.	.	.	.	.
12A\	.	.	12a\	.	.	.	.	.	.	.	.	.	.	.	.	.	.	.	.	.	.	.	.	.	.	.	.	.	.	.	.	.	.	.	.
12B`>\J	.	.	12b\J	.	.	.	.	.	.	.	.	.	.	.	.	.	.	.	.	.	.	.	.	.	.	.	.	.	.	.	.	.	.	.	.
!	!	!	!LO:LB:g=original	!	!	!	!	!	!	!	!	!	!	!	!	!	!	!	!	!	!	!	!	!	!	!	!	!	!	!	!	!	!	!	!
=5	=5	=5	=5	=5	=5	=5	=5	=5	=5	=5	=5	=5	=5	=5	=5	=5	=5	=5	=5	=5	=5	=5	=5	=5	=5	=5	=5	=5	=5	=5	=5	=5	=5	=5	=5
*	*	*	*	*	*^	*	*	*	*	*	*	*	*	*	*	*	*	*	*	*	*	*	*	*	*	*	*	*	*	*	*	*	*	*	*
*	*	*	*	*	*	*	*	*	*	*	*ij	*ij	*ij	*ij	*ij	*	*	*	*	*	*	*	*	*	*	*	*	*	*	*	*	*	*	*	*	*
!	!LO:DY:rj:b:t=for	!	!	!	!	!	!	!	!LO:DY:b:B:t=for.	!	!LO:TX:t=P:problem=4\right&colon; global	!	!	!	!	!	!	!	!LO:DY:rj:t=f.	!	!LO:DY:rj	!	!	!	!	!	!	!	!	!LO:DY:rj	!	!LO:DY:rj:t=f.	!	!	!	!
*	*	*	*	*	*	*	*	*	*	*	*	*	*	*	*	*	*	*	*	*	*	*head:invis	*	*	*	*	*	*	*	*	*	*	*	*	*	*
4c\	f	X X 3_	4cc\	.	4ee/	4G\ 4e 4cc	.	4g\ 4ee 4ccc	f	4c\	San-	4c\	San-	4g\	San-	4ee\	San-	4C/	f	4cc\	f	4c/	4cc\	f	4G\	.	4e\	f	4ee\	f	4gg\	f	4gg\	f	4eee\	f
4C/	.	.	4c\	.	4ee/	4G\ 4e 4cc	.	4g\ 4ee 4ccc	.	4c\	-ctus	4c\	-ctus	4g\	-ctus	4ee\	-ctus	4C/	.	4cc\	.	4c/	4cc\	.	4G\	.	4e\	.	4ee\	.	4gg\	.	4gg\	.	4eee\	.
*	*	*	*	*	*	*	*	*tuplet	*	*	*Xij	*Xij	*Xij	*Xij	*Xij	*	*	*	*	*	*	*	*	*	*	*	*	*	*	*	*	*	*	*	*	*
2r	.	.	2r	.	12ee\L	2G\yy	.	12ccc'>\L	.	2r	.	2r	.	2r	.	2r	.	2r	.	2r	.	2r	2r	.	2r	.	2r	.	2r	.	2r	.	2r	.	2r	.
.	.	.	.	.	12gg/	.	.	12bb'>\	.	.	.	.	.	.	.	.	.	.	.	.	.	.	.	.	.	.	.	.	.	.	.	.	.	.	.	.
.	.	.	.	.	12ff\J	.	.	12aa'>\J	.	.	.	.	.	.	.	.	.	.	.	.	.	.	.	.	.	.	.	.	.	.	.	.	.	.	.	.
.	.	.	.	.	12ee\L	.	.	12gg'>\L	.	.	.	.	.	.	.	.	.	.	.	.	.	.	.	.	.	.	.	.	.	.	.	.	.	.	.	.
.	.	.	.	.	12dd\	.	.	12ff'>\	.	.	.	.	.	.	.	.	.	.	.	.	.	.	.	.	.	.	.	.	.	.	.	.	.	.	.	.
.	.	.	.	.	12cc\J	.	.	12ee'>\J	.	.	.	.	.	.	.	.	.	.	.	.	.	.	.	.	.	.	.	.	.	.	.	.	.	.	.	.
*	*	*	*	*	*v	*v	*	*	*	*	*	*	*	*	*	*	*	*	*	*	*	*	*	*	*	*	*	*	*	*	*	*	*	*	*	*
!LO:PB:g=original	!	!	!	!	!	!	!	!	!	!	!	!	!	!	!	!	!	!	!	!	!	!	!	!	!	!	!	!	!	!	!	!	!	!	!
=6	=6	=6	=6	=6	=6	=6	=6	=6	=6	=6	=6	=6	=6	=6	=6	=6	=6	=6	=6	=6	=6	=6	=6	=6	=6	=6	=6	=6	=6	=6	=6	=6	=6	=6	=6
*	*	*	*	*	*	*	*	*	*	*ij	*	*ij	*	*ij	*	*ij	*	*	*	*	*	*	*	*	*	*	*	*	*	*	*	*	*	*	*
!	!	!	!	!	!	!	!	!	!	!	!	!	!	!	!	!	!	!LO:DY:rj:t=f	!	!LO:DY:rj	!	!	!	!	!	!	!	!	!	!	!	!	!	!	!
4F\	.	8_ 5_ 3_	4f\	.	4f/ 4a 4ff	.	4f\ 4cc 4aa	.	4F\	San-	4f\	San-	4cc\	San-	4aa\	San-	4C/	f	4cc\	f	4c/	4cc\	.	4A\	.	4f\	p	4ff\	.	4aa\	.	4aa\	.	4fff\	.
4F\	.	.	4f\	.	4f/ 4a 4ff	.	4f\ 4cc 4aa	.	4F\	-ctus	4f\	-ctus	4cc\	-ctus	4aa\	-ctus	4C/	.	4cc\	.	4c/	4cc\	.	4A\	.	4f\	.	4ff\	.	4aa\	.	4aa\	.	4fff\	.
*	*	*	*	*	*	*	*	*	*	*Xij	*	*Xij	*	*Xij	*	*Xij	*	*	*	*	*Xhead	*	*	*	*	*	*	*	*	*	*	*	*	*	*
2r	.	.	2r	.	12ff\L	.	12aa'\L	.	2r	.	2r	.	2r	.	2r	.	2r	.	2r	.	2r	2r	.	2r	.	2r	.	2r	.	2r	.	2r	.	4r	.
.	.	.	.	.	12ee\	.	12gg'\	.	.	.	.	.	.	.	.	.	.	.	.	.	.	.	.	.	.	.	.	.	.	.	.	.	.	.	.
.	.	.	.	.	12dd\J	.	12ff'\J	.	.	.	.	.	.	.	.	.	.	.	.	.	.	.	.	.	.	.	.	.	.	.	.	.	.	.	.
*	*	*	*	*	*	*	*Xtuplet	*	*	*	*	*	*	*	*	*	*	*	*	*	*	*	*	*	*	*	*	*	*	*	*	*	*	*	*
.	.	.	.	.	12cc\L	.	12ee'\L	.	.	.	.	.	.	.	.	.	.	.	.	.	.	.	.	.	.	.	.	.	.	.	.	.	.	4r	.
.	.	.	.	.	12b\	.	12dd'\	.	.	.	.	.	.	.	.	.	.	.	.	.	.	.	.	.	.	.	.	.	.	.	.	.	.	.	.
.	.	.	.	.	12a\J	.	12cc'\J	.	.	.	.	.	.	.	.	.	.	.	.	.	.	.	.	.	.	.	.	.	.	.	.	.	.	.	.
!	!	!	!	!	!LO:PB:g=original	!	!	!	!	!	!	!	!LO:LB:g=original	!	!	!	!	!	!	!	!	!	!	!	!	!LO:LB:g=original	!	!	!	!	!	!	!	!	!
=7	=7	=7	=7	=7	=7	=7	=7	=7	=7	=7	=7	=7	=7	=7	=7	=7	=7	=7	=7	=7	=7	=7	=7	=7	=7	=7	=7	=7	=7	=7	=7	=7	=7	=7	=7
*	*	*	*tremolo	*	*	*	*tuplet	*	*2\right	*	*2\right	*	*2\right	*	*2\right	*	*	*	*	*	*	*	*	*2\right	*	*2\right	*	*2\right	*	*2\right	*	*2\right	*	*2\right	*
!	!	!	!	!	!	!	!	!	!	!	!	!	!	!	!	!	!	!	!	!	!LO:TX:b:t=Alto molto pleni	!	!	!	!	!	!	!	!	!	!	!	!	!	!
!	!	!	!LO:TUP:a:problem=klamra łukowa	!	!LO:TUP:b:problem=klamra łukowa	!	!	!	!	!	!	!	!	!	!	!	!	!	!	!	!LO:TX:t=P:problem=powtórka taktów 7-8 (znak repetycji)	!	!	!	!	!	!	!	!	!	!	!	!	!	!
4B\	.	X X 3_	12d\L	.	12g/L	.	12dd'>\L	.	2G\	Do-	2B\	Do-	2g\	Do-	2dd\	Do-	4GG/	.	4g/	.	2g/	2dd\	.	2B\	.	2d\	.	2b\	.	2dd\	.	2bb\	.	2ddd\	.
.	.	.	12d\	.	12g/^<	.	12gg'>\	.	.	.	.	.	.	.	.	.	.	.	.	.	.	.	.	.	.	.	.	.	.	.	.	.	.	.	.
.	.	.	.	.	.	.	.	.	.	.	.	.	.	.	.	.	.	.	.	.	.	.	.	.	.	.	.	.	.	.	.	.	.	.	.
.	.	.	12d\	.	12g/J	.	12ff#X'>\J	.	.	.	.	.	.	.	.	.	.	.	.	.	.	.	.	.	.	.	.	.	.	.	.	.	.	.	.
*	*	*	*	*	*tremolo	*	*Xtuplet	*	*	*	*	*	*	*	*	*	*	*	*	*	*	*	*	*	*	*	*	*	*	*	*	*	*	*	*
!	!	!	!	!	!LO:TUP:b:problem=klamra łukowa	!	!	!	!	!	!	!	!	!	!	!	!	!	!	!	!	!	!	!	!	!	!	!	!	!	!	!	!	!	!
4G\	.	.	12d\	.	12g/L^<	.	12gg'>\L	.	.	.	.	.	.	.	.	.	4r	.	4r	.	.	.	.	.	.	.	.	.	.	.	.	.	.	.	.
.	.	.	12d\	.	12g	.	12ffn'>\	.	.	.	.	.	.	.	.	.	.	.	.	.	.	.	.	.	.	.	.	.	.	.	.	.	.	.	.
.	.	.	.	.	.	.	.	.	.	.	.	.	.	.	.	.	.	.	.	.	.	.	.	.	.	.	.	.	.	.	.	.	.	.	.
.	.	.	12d\J	.	12gJ	.	12dd'>\J	.	.	.	.	.	.	.	.	.	.	.	.	.	.	.	.	.	.	.	.	.	.	.	.	.	.	.	.
*	*	*	*	*	*tuplet	*	*	*	*	*	*	*	*	*	*	*	*	*	*	*	*	*	*	*	*	*	*	*	*	*	*	*	*	*	*
!	!	!	!LO:TUP:a:problem=klamra łukowa	!	!LO:TUP:b:problem=klamra łukowa	!	!	!	!	!	!	!	!	!	!	!	!	!	!LO:TUP:b:problem=klamra łukowa	!	!	!	!	!LO:TUP:a:problem=klamra łukowa	!	!LO:TUP:a:problem=klamra łukowa	!	!LO:TUP:b:problem=klamra łukowa	!	!LO:TUP:a:problem=klamra łukowa	!	!LO:TUP:a:problem=klamra łukowa	!	!LO:TUP:a:problem=klamra łukowa	!
4c\	.	X X 3_	12e\L	.	12g/L	.	12ee'>\L	.	4G\	-mi-	4c\	-mi-	4g\	-mi-	4ee\	-mi-	4C/	.	12r	.	2cc\	2ee\	.	12r	.	12r	.	12r	.	12r	.	12r	.	12r	.
!	!	!	!	!	!	!	!	!	!	!	!	!	!	!	!	!	!	!	!	!	!	!	!	!LO:LB:g=original	!	!	!	!	!	!	!	!	!	!LO:LB:g=original	!
.	.	.	12e\	.	12g	.	12gg'>\	.	.	.	.	.	.	.	.	.	.	.	12g/L	.	.	.	.	12G\L	.	12g\L	.	12g/L	.	12gg\L	.	12gg\L	.	12ggg\L	.
.	.	.	.	.	.	.	.	.	.	.	.	.	.	.	.	.	.	.	.	.	.	.	.	.	.	.	.	.	.	.	.	.	.	.	.
.	.	.	12e\	.	12g	.	12ff'>\J	.	.	.	.	.	.	.	.	.	.	.	12g/J	.	.	.	.	12G\J	.	12g\J	.	12g/J	.	12gg\J	.	12gg\J	.	12ggg\J	.
!	!	!	!	!	!	!	!	!	!	!	!	!	!	!	!	!	!	!	!LO:TUP:b:problem=klamra łukowa	!	!	!	!	!LO:TUP:a:problem=klamra łukowa	!	!LO:TUP:a:problem=klamra łukowa	!	!LO:TUP:b:problem=klamra łukowa	!	!LO:TUP:a:problem=klamra łukowa	!	!LO:TUP:a:problem=klamra łukowa	!	!LO:TUP:a:problem=klamra łukowa	!
4G\	.	.	12e\	.	12g/	.	12ee'>\L	.	4G\	-nus	4c\	-nus	4g\	-nus	4ee\	-nus	4r	.	12g/L	.	.	.	.	12G\L	.	12g\L	.	12g/L	.	12gg\L	.	12gg\L	.	12ggg\L	.
.	.	.	12e\	.	12g	.	12dd'>\	.	.	.	.	.	.	.	.	.	.	.	12e/	.	.	.	.	12E\	.	12e\	.	12e/	.	12ee\	.	12ee\	.	12eee\	.
.	.	.	.	.	.	.	.	.	.	.	.	.	.	.	.	.	.	.	.	.	.	.	.	.	.	.	.	.	.	.	.	.	.	.	.
!	!	!	!	!	!	!	!LO:TX:b:i:t=Verte:rj	!	!	!	!	!	!	!	!	!	!	!	!	!	!	!	!	!	!	!	!	!	!	!	!	!	!	!	!
.	.	.	12e\J	.	12gJ	.	12cc'>\J	.	.	.	.	.	.	.	.	.	.	.	12c/J	.	.	.	.	12C\J	.	12c\J	.	12c/J	.	12cc\J	.	12cc\J	.	12ccc\J	.
!	!	!	!	!	!	!	!LO:PB:g=original	!	!	!	!LO:PB:g=original	!	!	!	!	!	!	!	!	!	!	!	!	!	!	!	!	!	!	!	!	!LO:LB:g=original	!	!	!
=8	=8	=8	=8	=8	=8	=8	=8	=8	=8	=8	=8	=8	=8	=8	=8	=8	=8	=8	=8	=8	=8	=8	=8	=8	=8	=8	=8	=8	=8	=8	=8	=8	=8	=8	=8
!	!	!	!LO:TUP:a:problem=klamra łukowa	!	!LO:TUP:b	!	!	!	!	!	!	!	!	!	!	!	!	!	!	!	!	!	!	!	!	!	!	!	!	!	!	!	!	!	!
4d\	.	X X 3_	12f\L	.	12g/L	.	12b'>\L	.	2G\	De-	2d\	De-	2g\	De-	2ff\	De-	4GG/	.	4G/	.	2dd\	2ff\	.	2D\	.	2B\	.	2d/	.	2b\	.	2dd\	.	2bb\	.
.	.	.	12f\	.	12g	.	12dd'>\	.	.	.	.	.	.	.	.	.	.	.	.	.	.	.	.	.	.	.	.	.	.	.	.	.	.	.	.
.	.	.	.	.	.	.	.	.	.	.	.	.	.	.	.	.	.	.	.	.	.	.	.	.	.	.	.	.	.	.	.	.	.	.	.
.	.	.	12f\	.	12g	.	12cc'>\J	.	.	.	.	.	.	.	.	.	.	.	.	.	.	.	.	.	.	.	.	.	.	.	.	.	.	.	.
4G\	.	.	12f\	.	12g	.	12b'>\L	.	.	.	.	.	.	.	.	.	4r	.	4r	.	.	.	.	.	.	.	.	.	.	.	.	.	.	.	.
.	.	.	12f\	.	12g	.	12a'>\	.	.	.	.	.	.	.	.	.	.	.	.	.	.	.	.	.	.	.	.	.	.	.	.	.	.	.	.
.	.	.	.	.	.	.	.	.	.	.	.	.	.	.	.	.	.	.	.	.	.	.	.	.	.	.	.	.	.	.	.	.	.	.	.
.	.	.	12fJ\	.	12gJ	.	12g'>\J	.	.	.	.	.	.	.	.	.	.	.	.	.	.	.	.	.	.	.	.	.	.	.	.	.	.	.	.
!	!	!	!	!	!	!	!	!	!	!	!	!	!	!	!LO:LB:g=original	!	!	!	!	!	!	!	!	!	!	!	!	!	!	!	!	!	!	!	!
!	!	!	!LO:TUP:a:problem=klamra łukowa	!	!LO:TUP:b	!	!	!	!	!	!	!	!	!	!	!	!	!	!LO:TUP:b:problem=klamra łukowa	!	!	!	!	!LO:TUP:a:problem=klamra łukowa	!	!LO:TUP:a:problem=klamra łukowa	!	!LO:TUP:b:problem=klamra łukowa	!	!LO:TUP:a:problem=klamra łukowa	!	!LO:TUP:a:problem=klamra łukowa	!	!	!
*	*	*	*	*	*	*	*	*	*	*	*	*	*	*	*	*	*	*	*	*	*	*	*	*	*	*	*	*	*	*	*	*	*	*Xtuplet	*
4c\	.	X X 3_	12e\L	.	12g/L	.	12cc'>\L	.	2G\	-us	2c\	-us	2g\	-us	2ee\	-us	4C/	.	12r	.	2cc\	2ee\	.	12r	.	12r	.	12r	.	12r	.	12r	.	12r	.
.	.	.	12e\	.	12g	.	12dd'>\	.	.	.	.	.	.	.	.	.	.	.	12g/L	.	.	.	.	12G\L	.	12g\L	.	12g/L	.	12gg\L	.	12gg\L	.	12ggg\L	.
.	.	.	.	.	.	.	.	.	.	.	.	.	.	.	.	.	.	.	.	.	.	.	.	.	.	.	.	.	.	.	.	.	.	.	.
.	.	.	12e\	.	12g	.	12ee'>\J	.	.	.	.	.	.	.	.	.	.	.	12g/J	.	.	.	.	12G\J	.	12g\J	.	12g/J	.	12gg\J	.	12gg\J	.	12ggg\J	.
*	*	*	*	*	*	*	*	*	*	*	*	*	*	*	*	*	*	*	*	*	*	*	*	*	*	*	*	*	*	*	*	*	*	*tuplet	*
!	!	!	!	!	!	!	!	!	!	!	!	!	!	!	!	!	!	!	!LO:TUP:b:problem=klamra łukowa	!	!	!	!	!LO:TUP:a:problem=klamra łukowa	!	!LO:TUP:a:problem=klamra łukowa	!	!LO:TUP:b:problem=klamra łukowa	!	!LO:TUP:a:problem=klamra łukowa	!	!LO:TUP:a:problem=klamra łukowa	!	!LO:TUP:a:problem=klamra łukowa	!
4G\	.	.	12e\	.	12g	.	12ee'>\L	.	.	.	.	.	.	.	.	.	4r	.	12g/L	.	.	.	.	12G\L	.	12g\L	.	12g/L	.	12gg\L	.	12gg\L	.	12ggg\L	.
.	.	.	12e\	.	12g	.	12dd'>\	.	.	.	.	.	.	.	.	.	.	.	12e/	.	.	.	.	12E\	.	12e\	.	12e/	.	12ee\	.	12ee\	.	12eee\	.
.	.	.	.	.	.	.	.	.	.	.	.	.	.	.	.	.	.	.	.	.	.	.	.	.	.	.	.	.	.	.	.	.	.	.	.
.	.	.	12eJ\	.	12gJ	.	12cc'>\J	.	.	.	.	.	.	.	.	.	.	.	12c/J	.	.	.	.	12C\J	.	12c\J	.	12c/J	.	12cc\J	.	12cc\J	.	12ccc\J	.
!	!	!	!	!	!	!	!	!	!LO:LB:g=original	!	!	!	!	!	!	!	!	!	!	!	!	!LO:LB:g=original	!	!	!	!	!	!LO:LB:g=original	!	!LO:LB:g=original	!	!	!	!	!
=9	=9	=9	=9	=9	=9	=9	=9	=9	=9	=9	=9	=9	=9	=9	=9	=9	=9	=9	=9	=9	=9	=9	=9	=9	=9	=9	=9	=9	=9	=9	=9	=9	=9	=9	=9
*	*	*	*	*	*	*	*tuplet	*	*	*ij	*	*	*	*	*	*	*	*	*	*	*	*	*	*	*	*	*	*	*	*	*	*	*	*	*
!	!	!	!LO:TUP:a:problem=klamra łukowa	!	!LO:TUP:b	!	!	!	!	!	!	!	!	!	!	!	!	!	!	!	!	!	!	!	!	!	!	!	!	!	!	!	!	!	!
4B\	.	X X 3_	12d\L	.	12g/L	.	12dd'>\L	.	2G\	Do-	2B\	Do-	2g\	Do-	2dd\	Do-	4GG/	.	4G/	.	2g/	2dd\	.	2B\	.	2d\	.	2b\	.	2dd\	.	2ff\	.	2ddd\	.
.	.	.	12d\	.	12g	.	12gg'>\	.	.	.	.	.	.	.	.	.	.	.	.	.	.	.	.	.	.	.	.	.	.	.	.	.	.	.	.
.	.	.	.	.	.	.	.	.	.	.	.	.	.	.	.	.	.	.	.	.	.	.	.	.	.	.	.	.	.	.	.	.	.	.	.
.	.	.	12d\	.	12g	.	12ff#X'>\J	.	.	.	.	.	.	.	.	.	.	.	.	.	.	.	.	.	.	.	.	.	.	.	.	.	.	.	.
*	*	*	*	*	*	*	*Xtuplet	*	*	*	*	*	*	*	*	*	*	*	*	*	*	*	*	*	*	*Xtuplet	*	*	*	*	*	*	*	*	*
4G\	.	.	12d\	.	12g	.	12gg'>\L	.	.	.	.	.	.	.	.	.	4r	.	4r	.	.	.	.	.	.	.	.	.	.	.	.	.	.	.	.
.	.	.	12d\	.	12g	.	12ffn'>\	.	.	.	.	.	.	.	.	.	.	.	.	.	.	.	.	.	.	.	.	.	.	.	.	.	.	.	.
.	.	.	.	.	.	.	.	.	.	.	.	.	.	.	.	.	.	.	.	.	.	.	.	.	.	.	.	.	.	.	.	.	.	.	.
.	.	.	12d\J	.	12gJ	.	12dd'>\J	.	.	.	.	.	.	.	.	.	.	.	.	.	.	.	.	.	.	.	.	.	.	.	.	.	.	.	.
!	!	!	!LO:TUP:a:problem=klamra łukowa	!	!LO:TUP:b	!	!	!	!	!	!	!	!	!	!	!	!	!	!LO:TUP:b:problem=klamra łukowa	!	!	!	!	!LO:TUP:a:problem=klamra łukowa	!	!LO:TUP:a:problem=klamra łukowa	!	!LO:TUP:b:problem=klamra łukowa	!	!LO:TUP:a:problem=klamra łukowa	!	!LO:TUP:a:problem=klamra łukowa	!	!LO:TUP:a:problem=klamra łukowa	!
4c\	.	x x 3_	12e\L	.	12g/L	.	12ee'>\L	.	4G\	-mi-	4c\	-mi-	4g\	-mi-	2ee\	-minus	4C/	.	12r	.	2cc\	2ee\	.	12r	.	12r	.	12r	.	12r	.	12r	.	12r	.
.	.	.	12e\	.	12g	.	12gg'>\	.	.	.	.	.	.	.	.	.	.	.	12g/L	.	.	.	.	12G\L	.	12g\L	.	12g/L	.	12gg\L	.	12gg\L	.	12ggg\L	.
.	.	.	.	.	.	.	.	.	.	.	.	.	.	.	.	.	.	.	.	.	.	.	.	.	.	.	.	.	.	.	.	.	.	.	.
.	.	.	12e\	.	12g	.	12ff'>\J	.	.	.	.	.	.	.	.	.	.	.	12g/J	.	.	.	.	12G\J	.	12g\J	.	12g/J	.	12gg\J	.	12gg\J	.	12ggg\J	.
*	*	*	*	*	*	*	*	*	*	*	*	*	*	*	*	*	*	*	*	*	*	*	*	*	*	*tuplet	*	*	*	*	*	*	*	*	*
!	!	!	!	!	!	!	!	!	!	!	!	!	!	!	!	!	!	!LO:LB:g=original	!	!	!	!	!	!LO:TUP:a:problem=klamra łukowa	!	!LO:TUP:a:problem=klamra łukowa	!	!LO:TUP:b:problem=klamra łukowa	!	!LO:TUP:a:problem=klamra łukowa	!	!LO:TUP:a:problem=klamra łukowa	!	!LO:TUP:a:problem=klamra łukowa	!
!	!	!	!	!	!	!	!	!	!	!	!	!	!	!	!	!	!	!	!LO:TUP:b:problem=klamra łukowa	!	!	!	!	!	!	!	!	!	!	!	!	!	!	!	!
4G\	.	.	12e\	.	12g	.	12ee'>\L	.	4G\	-nus	4c\	-nus	4g\	-nus	.	.	4r	.	12g/L	.	.	.	.	12G\L	.	12g\L	.	12g/L	.	12gg\L	.	12gg\L	.	12ggg\L	.
.	.	.	12e\	.	12g	.	12dd'>\	.	.	.	.	.	.	.	.	.	.	.	12e/	.	.	.	.	12E\	.	12e\	.	12e/	.	12ee\	.	12ee\	.	12eee\	.
.	.	.	.	.	.	.	.	.	.	.	.	.	.	.	.	.	.	.	.	.	.	.	.	.	.	.	.	.	.	.	.	.	.	.	.
.	.	.	12eJ\	.	12gJ	.	12cc'>\J	.	.	.	.	.	.	.	.	.	.	.	12c/J	.	.	.	.	12C\J	.	12c\J	.	12c/J	.	12cc\J	.	12cc\J	.	12ccc\J	.
=10	=10	=10	=10	=10	=10	=10	=10	=10	=10	=10	=10	=10	=10	=10	=10	=10	=10	=10	=10	=10	=10	=10	=10	=10	=10	=10	=10	=10	=10	=10	=10	=10	=10	=10	=10
*	*	*	*	*	*Xtuplet	*	*	*	*	*	*	*	*	*	*	*	*	*	*	*	*	*	*	*	*	*	*	*	*	*	*	*	*	*Xtuplet	*
!	!	!	!LO:TUP:a:problem=klamra łukowa	!	!	!	!	!	!	!	!	!	!	!	!	!	!	!	!	!	!	!	!	!	!	!	!	!	!	!	!	!	!	!	!
4d\	.	x x 3_	12f\L	.	8g/L	.	12b'>\L	.	2G\	De-	2d\	De-	2g\	De-	2ff\	De-	4GG/	.	4G/	.	2dd\	2ff\	.	2D\	.	2B\	.	2d/	.	2b\	.	2dd\	.	2bb\	.
.	.	.	12f\	.	.	.	12dd'>\	.	.	.	.	.	.	.	.	.	.	.	.	.	.	.	.	.	.	.	.	.	.	.	.	.	.	.	.
.	.	.	.	.	8g/	.	.	.	.	.	.	.	.	.	.	.	.	.	.	.	.	.	.	.	.	.	.	.	.	.	.	.	.	.	.
.	.	.	12f\	.	.	.	12cc'>\J	.	.	.	.	.	.	.	.	.	.	.	.	.	.	.	.	.	.	.	.	.	.	.	.	.	.	.	.
4G\	.	.	12f\	.	8g/	.	12b'>\L	.	.	.	.	.	.	.	.	.	4r	.	4r	.	.	.	.	.	.	.	.	.	.	.	.	.	.	.	.
.	.	.	12f\	.	.	.	12a'>\	.	.	.	.	.	.	.	.	.	.	.	.	.	.	.	.	.	.	.	.	.	.	.	.	.	.	.	.
.	.	.	.	.	8g/J	.	.	.	.	.	.	.	.	.	.	.	.	.	.	.	.	.	.	.	.	.	.	.	.	.	.	.	.	.	.
.	.	.	12fJ\	.	.	.	12g'>\J	.	.	.	.	.	.	.	.	.	.	.	.	.	.	.	.	.	.	.	.	.	.	.	.	.	.	.	.
!	!	!	!LO:TUP:a:problem=klamra łukowa	!	!	!	!	!	!	!	!	!	!	!	!	!	!	!	!LO:TUP:b:problem=klamra łukowa	!	!	!	!	!LO:TUP:a:problem=klamra łukowa	!	!LO:TUP:a:problem=klamra łukowa	!	!LO:TUP:b:problem=klamra łukowa	!	!LO:TUP:a:problem=klamra łukowa	!	!LO:TUP:a:problem=klamra łukowa	!	!	!
4c\	.	x x 3_	12e\L	.	8g/L	.	12cc'>\L	.	2G\	-us	2c\	-us	2g\	-us	2ee\	-us	4C/	.	12r	.	2cc\	2ee\	.	12r	.	12r	.	12r	.	12r	.	12r	.	12r	.
.	.	.	12e\	.	.	.	12dd'>\	.	.	.	.	.	.	.	.	.	.	.	12g/L	.	.	.	.	12G\L	.	12g\L	.	12g/L	.	12gg\L	.	12gg\L	.	12ggg\L	.
.	.	.	.	.	8g/	.	.	.	.	.	.	.	.	.	.	.	.	.	.	.	.	.	.	.	.	.	.	.	.	.	.	.	.	.	.
.	.	.	12e\	.	.	.	12ee'>\J	.	.	.	.	.	.	.	.	.	.	.	12g/J	.	.	.	.	12G\J	.	12g\J	.	12g/J	.	12gg\J	.	12gg\J	.	12ggg\J	.
*	*	*	*	*	*	*	*	*	*	*	*	*	*	*	*	*	*	*	*	*	*	*	*	*	*	*tuplet	*	*	*	*	*	*	*	*	*
!	!	!	!	!	!	!	!	!	!	!	!	!	!	!	!	!	!	!	!LO:TUP:b:problem=klamra łukowa	!	!	!	!	!LO:TUP:a:problem=klamra łukowa	!	!LO:TUP:a:problem=klamra łukowa	!	!LO:TUP:b:problem=klamra łukowa	!	!LO:TUP:a:problem=klamra łukowa	!	!LO:TUP:a:problem=klamra łukowa	!	!	!
4G\	.	.	12e\	.	8g/	.	12ee'>\L	.	.	.	.	.	.	.	.	.	4r	.	12g/L	.	.	.	.	12G\L	.	12g\L	.	12g/L	.	12gg\L	.	12gg\L	.	12ggg\L	.
.	.	.	12e\	.	.	.	12dd'>\	.	.	.	.	.	.	.	.	.	.	.	12e/	.	.	.	.	12E\	.	12e\	.	12e/	.	12ee\	.	12ee\	.	12eee\	.
.	.	.	.	.	8g/J	.	.	.	.	.	.	.	.	.	.	.	.	.	.	.	.	.	.	.	.	.	.	.	.	.	.	.	.	.	.
.	.	.	12eJ\	.	.	.	12cc'>\J	.	.	.	.	.	.	.	.	.	.	.	12c/J	.	.	.	.	12C\J	.	12c\J	.	12c/J	.	12cc\J	.	12cc\J	.	12ccc\J	.
*	*	*	*	*	*	*	*	*	*	*Xij	*	*	*	*	*	*	*	*	*	*	*	*	*	*	*	*	*	*	*	*	*	*	*	*	*
!	!	!	!	!	!	!	!	!	!	!	!	!	!	!	!	!LO:LB:g=original	!	!	!	!LO:LB:g=original	!	!	!	!	!	!	!	!	!	!	!	!	!	!	!
=11	=11	=11	=11	=11	=11	=11	=11	=11	=11	=11	=11	=11	=11	=11	=11	=11	=11	=11	=11	=11	=11	=11	=11	=11	=11	=11	=11	=11	=11	=11	=11	=11	=11	=11	=11
*Xtuplet	*	*	*	*	*	*	*	*	*	*	*	*	*	*	*	*	*	*	*	*	*Xtuplet	*	*	*	*	*	*	*	*	*	*	*	*	*	*
*	*	*	*Xtremolo	*	*tuplet	*	*	*	*	*	*	*	*	*	*	*	*	*	*	*	*head:invis	*	*	*	*	*	*	*	*	*	*	*	*	*tuplet	*
*	*	*	*	*	*2\right	*	*	*	*	*	*	*	*	*	*	*	*	*	*	*	*	*Xtuplet	*	*	*	*	*	*tremolo	*	*	*	*	*	*	*
!	!	!	!	!	!	!	!	!	!	!	!	!	!	!	!	!	!	!	!	!	!	!	!	!LO:TUP:a:problem=klamra łukowa	!	!LO:TUP:a:problem=klamra łukowa	!	!LO:TUP:a:problem=klamra łukowa	!	!	!	!	!	!	!
!	!	!	!LO:TUP:a:problem=klamra łukowa	!	!LO:TUP:a	!	!	!	!	!	!	!	!	!	!	!	!	!	!LO:TUP:a:problem=klamra łukowa	!	!	!	!	!	!	!	!	!LO:TX:t=P:problem=nuty tremolowane z kropkami	!	!LO:TUP:a:problem=klamra łukowa	!	!LO:TUP:a:problem=klamra łukowa	!	!LO:TUP:a:problem=klamra łukowa	!
12F#X\L	.	6 5_ 3_	12a\L	.	12ee-X\L	.	12cc'>\L	.	2F#X\	Sa-	2e-X\	Sa-	2a\	Sa-	2cc\	Sa-	1CT>	.	12cc\L	.	12c/L	12cc\L	.	12c\L	.	12e-X\L	.	12cc\L	.	12ee-X\L	.	12ccc\L	.	12eee-X\L	.
.	.	7_ x_ x_	.	.	.	.	.	.	.	.	.	.	.	.	.	.	.	.	.	.	.	.	.	.	.	.	.	.	.	.	.	.	.	.	.
12F#\	.	.	12a\	.	12ee-	.	12ccc'>\	.	.	.	.	.	.	.	.	.	.	.	12cc\	.	12c/	12cc\	.	12c\	.	12e-\	.	12cc\	.	12ee-\	.	12ccc\	.	12eee-\	.
.	.	.	.	.	.	.	.	.	.	.	.	.	.	.	.	.	.	.	.	.	.	.	.	.	.	.	.	.	.	.	.	.	.	.	.
12F#\J	.	.	12a\J	.	12ee-	.	12ccc'>\J	.	.	.	.	.	.	.	.	.	.	.	12cc\J	.	12c/J	12cc\J	.	12c\J	.	12e-\J	.	12cc\	.	12ee-\J	.	12ccc\J	.	12eee-\J	.
*tremolo	*	*	*tremolo	*	*	*	*tremolo	*	*	*	*	*	*	*	*	*	*	*	*	*	*tremolo	*tremolo	*	*tremolo	*	*tremolo	*	*	*	*tremolo	*	*tremolo	*	*tremolo	*
!	!	!	!	!	!	!	!	!	!	!	!	!	!	!	!	!	!	!	!	!	!	!	!	!	!	!LO:TUP:a:problem=klamra łukowa	!	!	!	!LO:TUP:a:problem=klamra łukowa	!	!	!	!	!
!LO:TX:t=P:problem=tremolowane wartości z kropką	!	!	!LO:TUP:a:problem=klamra łukowa	!	!	!	!	!	!	!	!	!	!	!	!	!	!	!	!LO:TUP:a:problem=klamra łukowa	!	!	!	!	!LO:TUP:a:problem=klamra łukowa	!	!LO:TX:t=P:problem=nuty tremolowane z kropkami	!	!	!	!LO:TX:t=P:problem=nuty tremolowane z kropkami	!	!	!	!LO:TUP:a:problem=klamra łukowa	!
12F#\L	.	.	12a\L	.	12ee-	.	16ccc\LL	.	.	.	.	.	.	.	.	.	.	.	12cc\L	.	8c/L	12cc'>\L	.	12c\L	.	12e-\L	.	12cc\	.	12ee-\L	.	8ccc\L	.	12eee-\L	.
.	.	.	.	.	.	.	16ccc\	.	.	.	.	.	.	.	.	.	.	.	.	.	.	.	.	.	.	.	.	.	.	.	.	.	.	.	.
12F#	.	.	12a\	.	12ee-	.	.	.	.	.	.	.	.	.	.	.	.	.	12cc\	.	.	12cc\'>	.	12c\	.	12e-\	.	12cc\	.	12ee-\	.	.	.	12eee-\	.
.	.	.	.	.	.	.	16ccc\	.	.	.	.	.	.	.	.	.	.	.	.	.	8c/J	.	.	.	.	.	.	.	.	.	.	8ccc\	.	.	.
12F#J	.	.	12a\J	.	12ee-J	.	.	.	.	.	.	.	.	.	.	.	.	.	12cc\J	.	.	12cc\'>J	.	12c\J	.	12e-J\	.	12cc\J	.	12ee-\J	.	.	.	12eee-J\	.
.	.	.	.	.	.	.	16ccc\JJ	.	.	.	.	.	.	.	.	.	.	.	.	.	.	.	.	.	.	.	.	.	.	.	.	.	.	.	.
!	!	!	!	!	!	!	!	!	!	!	!	!	!	!	!	!	!	!	!	!	!	!	!	!	!	!LO:LB:g=original	!	!	!	!	!	!	!	!	!
*	*	*	*	*	*Xtremolo	*	*Xtremolo	*	*	*	*	*	*	*	*	*	*	*	*	*	*	*	*	*	*	*	*	*	*	*	*	*	*	*	*
*	*	*	*	*	*Xtuplet	*	*	*	*	*	*	*	*	*	*	*	*	*	*	*	*	*	*	*	*	*	*	*	*	*	*	*	*	*	*
!	!	!	!	!	!	!	!LO:LB:g=original	!	!	!	!	!	!	!	!	!	!	!	!	!	!	!	!	!LO:TUP:a:problem=klamra łukowa	!	!LO:TUP:a:problem=klamra łukowa	!	!LO:TUP:a:problem=klamra łukowa	!	!LO:TUP:a:problem=klamra łukowa	!	!	!	!	!
!LO:TX:t=P:problem=tremolowane wartości z kropką	!	!	!LO:TUP:a:problem=klamra łukowa	!	!	!	!	!	!	!	!	!	!	!	!	!	!	!	!LO:TUP:a:problem=klamra łukowa	!	!	!	!	!	!	!LO:TX:t=P:problem=nuty tremolowane z kropkami	!	!LO:TX:t=P:problem=nuty tremolowane z kropkami	!	!LO:TX:t=P:problem=nuty tremolowane z kropkami	!	!	!	!LO:TUP:a:problem=klamra łukowa	!
12F#\L	.	.	12a\L	.	12ee-\L	.	12ccc'>\L	.	2F#\	-ba-	2e-\	-ba-	2a\	-ba-	2cc\	-ba-	.	.	12cc\L	.	8c/L	12cc\'>L	.	12c\L	.	12e-\L	.	12cc\L	.	12ee-\L	.	8ccc\J	.	12eee-\L	.
12F#\	.	.	12a\	.	12dd\	.	12bb'>\	.	.	.	.	.	.	.	.	.	.	.	12cc\	.	.	12cc\'>	.	12c\	.	12e-\	.	12cc\	.	12ee-\	.	.	.	12eee-\	.
.	.	.	.	.	.	.	.	.	.	.	.	.	.	.	.	.	.	.	.	.	8c/J	.	.	.	.	.	.	.	.	.	.	8ccc\L	.	.	.
12F#\J	.	.	12a\J	.	12ee-\J	.	12ccc'>\J	.	.	.	.	.	.	.	.	.	.	.	12cc\J	.	.	12cc\'>J	.	12c\J	.	12e-J\	.	12cc\	.	12ee-\J	.	.	.	12eee-J\	.
!	!	!	!	!	!	!	!	!	!	!	!	!	!	!	!	!	!	!	!	!	!	!	!	!LO:TUP:a:problem=klamra łukowa	!	!LO:TUP:a:problem=klamra łukowa	!	!	!	!LO:TUP:a:problem=klamra łukowa	!	!	!	!	!
!LO:TX:t=P:problem=tremolowane wartości z kropką	!	!	!LO:TUP:a:problem=klamra łukowa	!	!	!	!	!	!	!	!	!	!	!	!	!	!	!	!LO:TUP:a:problem=klamra łukowa	!	!	!	!	!	!	!LO:TX:t=P:problem=nuty tremolowane z kropkami	!	!	!	!LO:TX:t=P:problem=nuty tremolowane z kropkami	!	!	!	!LO:TUP:a:problem=klamra łukowa	!
12F#\L	.	.	12a\L	.	12ee-\L	.	12ccc'>\L	.	.	.	.	.	.	.	.	.	.	.	12cc\L	.	8c/L	12cc\'>L	.	12c\L	.	12e-\L	.	12cc\	.	12ee-\L	.	8ccc\	.	12eee-\L	.
12F#\	.	.	12a\	.	12dd\	.	12bb'>\	.	.	.	.	.	.	.	.	.	.	.	12cc\	.	.	12cc\'>	.	12c\	.	12e-\	.	12cc\	.	12ee-	.	.	.	12eee-\	.
.	.	.	.	.	.	.	.	.	.	.	.	.	.	.	.	.	.	.	.	.	8c/J	.	.	.	.	.	.	.	.	.	.	8ccc\J	.	.	.
12F#\J	.	.	12a\J	.	12ee-\J	.	12ccc'>\J	.	.	.	.	.	.	.	.	.	.	.	12cc\J	.	.	12cc\'>J	.	12c\J	.	12e-J\	.	12cc\J	.	12ee-\J	.	.	.	12eee-\J	.
!	!	!	!	!	!	!	!	!	!	!	!	!	!	!	!	!	!	!	!	!	!	!	!	!LO:LB:g=original	!	!	!	!	!	!LO:LB:g=original	!	!	!	!LO:LB:g=original	!
=12	=12	=12	=12	=12	=12	=12	=12	=12	=12	=12	=12	=12	=12	=12	=12	=12	=12	=12	=12	=12	=12	=12	=12	=12	=12	=12	=12	=12	=12	=12	=12	=12	=12	=12	=12
*	*	*	*	*	*	*	*	*	*	*	*	*	*	*	*	*	*	*	*	*	*Xhead	*	*	*	*	*	*	*	*	*	*	*	*	*	*
4G\	.	7 5 3	4g\	.	4dd\	.	12bb'>\L	.	4G\	-oth	4d\	-oth	4g\	-oth	4b\	-oth	4GG/	.	4g/	.	4G/	4g/	.	4B\	.	4d\	.	4b\	.	4dd\	.	4bb\	.	4ddd\	.
.	.	.	.	.	.	.	12ddd'>\	.	.	.	.	.	.	.	.	.	.	.	.	.	.	.	.	.	.	.	.	.	.	.	.	.	.	.	.
.	.	.	.	.	.	.	12ccc'>\J	.	.	.	.	.	.	.	.	.	.	.	.	.	.	.	.	.	.	.	.	.	.	.	.	.	.	.	.
4r	.	.	4r	.	12dd\L	.	12bb'>\L	.	4r	.	4r	.	4r	.	4r	.	4r	.	4r	.	4r	4r	.	4r	.	4r	.	4r	.	4r	.	4r	.	4r	.
.	.	.	.	.	12cc\	.	12aa'>\	.	.	.	.	.	.	.	.	.	.	.	.	.	.	.	.	.	.	.	.	.	.	.	.	.	.	.	.
.	.	.	.	.	12bn\J	.	12gg'>\J	.	.	.	.	.	.	.	.	.	.	.	.	.	.	.	.	.	.	.	.	.	.	.	.	.	.	.	.
2r	.	.	2r	.	12b\L	.	12gg'>\L	.	2r	.	2r	.	2r	.	2r	.	2r	.	2r	.	2r	2r	.	2r	.	2r	.	2r	.	2r	.	2r	.	2r	.
.	.	.	.	.	12cc\	.	12aa'>\	.	.	.	.	.	.	.	.	.	.	.	.	.	.	.	.	.	.	.	.	.	.	.	.	.	.	.	.
.	.	.	.	.	12dd\J	.	12bb'>\J	.	.	.	.	.	.	.	.	.	.	.	.	.	.	.	.	.	.	.	.	.	.	.	.	.	.	.	.
.	.	.	.	.	12b\L	.	12gg'>\L	.	.	.	.	.	.	.	.	.	.	.	.	.	.	.	.	.	.	.	.	.	.	.	.	.	.	.	.
.	.	.	.	.	12cc\	.	12aa'>\	.	.	.	.	.	.	.	.	.	.	.	.	.	.	.	.	.	.	.	.	.	.	.	.	.	.	.	.
.	.	.	.	.	12dd\J	.	12bb'>\J	.	.	.	.	.	.	.	.	.	.	.	.	.	.	.	.	.	.	.	.	.	.	.	.	.	.	.	.
!LO:LB:g=original	!	!	!	!	!LO:LB:g=original	!	!	!	!	!	!	!	!LO:LB:g=original	!	!	!	!	!	!	!	!	!	!	!	!	!	!	!	!	!	!	!	!	!	!
=13	=13	=13	=13	=13	=13	=13	=13	=13	=13	=13	=13	=13	=13	=13	=13	=13	=13	=13	=13	=13	=13	=13	=13	=13	=13	=13	=13	=13	=13	=13	=13	=13	=13	=13	=13
*	*	*	*	*	*tuplet	*	*	*	*	*ij	*	*	*	*	*	*	*	*	*	*	*head:invis	*	*	*	*	*	*	*	*	*	*	*	*	*	*
*Xtremolo	*	*	*Xtremolo	*	*tremolo	*	*	*	*	*	*	*	*	*	*	*	*	*	*	*	*Xtremolo	*Xtremolo	*	*	*	*	*	*	*	*Xtremolo	*	*Xtremolo	*	*Xtremolo	*
!	!	!	!	!	!	!	!	!	!	!	!	!	!	!	!	!	!	!	!	!	!	!	!	!	!	!LO:TX:t=P:problem=nuty tremolowane z kropkami	!	!LO:TX:t=P:problem=nuty tremolowane z kropkami	!	!	!	!	!	!	!
!	!	!	!LO:TUP:a:problem=klamra łukowa	!	!LO:TUP:a	!	!	!	!	!	!	!	!	!	!	!	!	!	!LO:TUP:a:problem=klamra łukowa	!	!	!	!	!LO:TUP:a:problem=klamra łukowa	!	!	!	!LO:TUP:a:problem=klamra łukowa	!	!LO:TUP:a:problem=klamra łukowa	!	!LO:TUP:a:problem=klamra łukowa	!	!LO:TUP:a:problem=klamra łukowa	!
12F#X\L	.	7_ 5_ 3_	12a\L	.	12ee-X\L	.	12ccc'>\L	.	2F#X\	Sa-	2e-X\	Sa-	2a\	Sa-	2cc\	Sa-	1CT>	.	12cc\L	.	12c/L	12cc\L	.	12c\L	.	12e-X\L	.	12cc\L	.	12ee-X\L	.	12ccc\L	.	12eee-X\L	.
12F#\	.	.	12a\	.	12ee-X	.	12ccc'>\	.	.	.	.	.	.	.	.	.	.	.	12cc\	.	12c/	12cc\	.	12c\	.	12e-X\	.	12cc\	.	12ee-\	.	12ccc\	.	12eee-\	.
.	.	.	.	.	.	.	.	.	.	.	.	.	.	.	.	.	.	.	.	.	.	.	.	.	.	.	.	.	.	.	.	.	.	.	.
12F#\J	.	.	12a\J	.	12ee-X	.	12ccc'>\J	.	.	.	.	.	.	.	.	.	.	.	12cc\J	.	12c/J	12cc\J	.	12c\J	.	12e-X\J	.	12cc\	.	12ee-\J	.	12ccc\J	.	12eee-\J	.
*tremolo	*	*	*tremolo	*	*	*	*tremolo	*	*	*	*	*	*	*	*	*	*	*	*tremolo	*	*tremolo	*tremolo	*	*	*	*	*	*	*	*tremolo	*	*tremolo	*	*tremolo	*
!LO:TX:t=P:problem=tremolowane wartości z kropką	!	!	!LO:TUP:a:problem=klamra łukowa	!	!	!	!	!	!	!	!	!	!	!	!	!	!	!	!LO:TUP:a:problem=klamra łukowa	!	!	!	!	!LO:TUP:a:problem=klamra łukowa	!	!LO:TX:t=P:problem=nuty tremolowane z kropkami	!	!	!	!LO:TUP:a:problem=klamra łukowa	!	!LO:TX:t=P:problem=nuty tremolowane z kropkami	!	!LO:TUP:a:problem=klamra łukowa	!
12F#\L	.	.	12a\L	.	12ee-X	.	16ccc\LL	.	.	.	.	.	.	.	.	.	.	.	12cc'>\L	.	8c/L	12cc'>\L	.	12c\L	.	12e-X\L	.	12cc\	.	12ee-\L	.	12ccc\L	.	12eee-\L	.
.	.	.	.	.	.	.	16ccc\	.	.	.	.	.	.	.	.	.	.	.	.	.	.	.	.	.	.	.	.	.	.	.	.	.	.	.	.
12F#\	.	.	12a\	.	12ee-X	.	.	.	.	.	.	.	.	.	.	.	.	.	12cc'>\	.	.	12cc'>\	.	12c\	.	12e-X\	.	12cc\	.	12ee-\	.	12ccc\	.	12eee-\	.
.	.	.	.	.	.	.	16ccc\	.	.	.	.	.	.	.	.	.	.	.	.	.	8c/J	.	.	.	.	.	.	.	.	.	.	.	.	.	.
12F#\J	.	.	12a\J	.	12ee-XJ	.	.	.	.	.	.	.	.	.	.	.	.	.	12cc'>\J	.	.	12cc'>\J	.	12c\J	.	12e-X\J	.	12cc\J	.	12ee-\J	.	12ccc\J	.	12eee-J\	.
.	.	.	.	.	.	.	16ccc\JJ	.	.	.	.	.	.	.	.	.	.	.	.	.	.	.	.	.	.	.	.	.	.	.	.	.	.	.	.
*	*	*	*	*	*Xtuplet	*	*Xtremolo	*	*	*	*	*	*	*	*	*	*	*	*	*	*	*	*	*Xtuplet	*	*	*	*	*	*	*	*	*	*	*
*	*	*	*	*	*Xtremolo	*	*	*	*	*	*	*	*	*	*	*	*	*	*	*	*	*	*	*	*	*	*	*	*	*	*	*	*	*	*
!	!	!	!	!	!	!	!	!	!	!	!	!	!	!	!	!	!	!	!	!	!	!	!	!	!	!LO:TX:t=P:problem=nuty tremolowane z kropkami	!	!LO:TX:t=P:problem=nuty tremolowane z kropkami	!	!	!	!	!	!	!
!LO:TX:t=P:problem=tremolowane wartości z kropką	!	!	!LO:TUP:a:problem=klamra łukowa	!	!	!	!	!	!	!	!	!	!	!	!	!	!	!	!LO:TUP:a:problem=klamra łukowa	!	!	!	!	!	!	!	!	!LO:TUP:a:problem=klamra łukowa	!	!LO:TUP:a:problem=klamra łukowa	!	!LO:TX:t=P:problem=nuty tremolowane z kropkami	!	!LO:TUP:a:problem=klamra łukowa	!
12F#\L	.	.	12a\L	.	12ee-\L	.	12ccc'>\L	.	2F#\	-ba-	2e-\	-ba-	2a\	-ba-	2cc\	-ba-	.	.	12cc'>\L	.	8c/L	12cc'>\L	.	12c\L	.	12e-X\L	.	12cc\L	.	12ee-\L	.	12ccc\L	.	12eee-\L	.
12F#	.	.	12a\	.	12dd\	.	12bb'>\	.	.	.	.	.	.	.	.	.	.	.	12cc'>\	.	.	12cc'>\	.	12c\	.	12e-X\	.	12cc\	.	12ee-\	.	12ccc\	.	12eee-\	.
.	.	.	.	.	.	.	.	.	.	.	.	.	.	.	.	.	.	.	.	.	8c/J	.	.	.	.	.	.	.	.	.	.	.	.	.	.
12F#\J	.	.	12a\J	.	12ee-\J	.	12ccc'>\J	.	.	.	.	.	.	.	.	.	.	.	12cc'>\J	.	.	12cc'>\J	.	12c\J	.	12e-X\J	.	12cc\	.	12ee-J\	.	12ccc\J	.	12eee-\J	.
!LO:TX:t=P:problem=tremolowane wartości z kropką	!	!	!LO:TUP:a:problem=klamra łukowa	!	!	!	!	!	!	!	!	!	!	!	!	!	!	!	!LO:TUP:a:problem=klamra łukowa	!	!	!	!	!	!	!LO:TX:t=P:problem=nuty tremolowane z kropkami	!	!	!	!LO:TUP:a:problem=klamra łukowa	!	!LO:TX:t=P:problem=nuty tremolowane z kropkami	!	!LO:TUP:a:problem=klamra łukowa	!
12F#\L	.	.	12a\L	.	12ee-\L	.	12ccc'>\L	.	.	.	.	.	.	.	.	.	.	.	12cc'>\L	.	8c/L	12cc'>\L	.	12c\L	.	12e-X\L	.	12cc\	.	12ee-\L	.	12ccc\L	.	12eee-\L	.
12F#\	.	.	12a\	.	12dd\	.	12bb'>\	.	.	.	.	.	.	.	.	.	.	.	12cc'>\	.	.	12cc'>\	.	12c\	.	12e-X\	.	12cc\	.	12ee-\	.	12ccc\	.	12eee-\	.
.	.	.	.	.	.	.	.	.	.	.	.	.	.	.	.	.	.	.	.	.	8c/J	.	.	.	.	.	.	.	.	.	.	.	.	.	.
12F#\J	.	.	12a\J	.	12ee-\J	.	12aa'>\J	.	.	.	.	.	.	.	.	.	.	.	12cc'>\J	.	.	12cc'>\J	.	12c\J	.	12e-X\J	.	12cc\J	.	12ee-\J	.	12ccc\J	.	12eee-\J	.
*Xtremolo	*	*	*Xtremolo	*	*	*	*	*	*	*	*	*	*	*	*	*	*	*	*	*	*Xtremolo	*Xtremolo	*	*Xtremolo	*	*Xtremolo	*	*Xtremolo	*	*Xtremolo	*	*Xtremolo	*	*Xtremolo	*
!	!	!	!LO:LB:g=original	!	!	!	!	!	!	!	!	!	!	!	!	!	!	!	!	!	!	!	!	!	!	!	!	!	!	!LO:LB:g=original	!	!LO:LB:g=original	!	!	!
=14	=14	=14	=14	=14	=14	=14	=14	=14	=14	=14	=14	=14	=14	=14	=14	=14	=14	=14	=14	=14	=14	=14	=14	=14	=14	=14	=14	=14	=14	=14	=14	=14	=14	=14	=14
*	*	*	*	*	*tuplet	*	*	*	*	*	*	*	*	*	*	*	*	*	*Xtremolo	*	*Xhead	*	*	*	*	*	*	*	*	*	*	*	*	*	*
!	!	!	!	!	!	!	!	!	!	!	!	!	!	!	!	!	!	!	!LO:TX:t=P:problem=przed triolą zbędna ćwierćnuta g	!	!	!	!	!	!	!	!	!	!	!	!	!	!	!	!
!	!	!	!	!	!LO:TUP:a:problem=klamra łukowa	!	!	!	!	!	!	!	!	!	!	!	!	!	!LO:TUP:b:problem=klamra łukowa	!	!	!	!	!	!	!	!	!	!	!	!	!	!	!	!
4G\	.	x x 3	4g\	.	12dd\L	.	12bb'>\L	.	4G\	-oth	4d\	-oth	4g\	-oth	4b\	-oth	4GG/	.	12g/L	.	4g/	4dd\	.	4B\	.	4d\	.	4b\	.	4dd\	.	4bb\	.	4ddd\	.
.	.	.	.	.	12cc\	.	12aa'>\	.	.	.	.	.	.	.	.	.	.	.	12g/	.	.	.	.	.	.	.	.	.	.	.	.	.	.	.	.
.	.	.	.	.	12bn\J	.	12gg'>\J	.	.	.	.	.	.	.	.	.	.	.	12g/J	.	.	.	.	.	.	.	.	.	.	.	.	.	.	.	.
*	*	*	*	*	*	*	*	*	*	*Xij	*	*	*	*ij	*	*ij	*	*	*tremolo	*	*	*	*	*	*	*	*	*	*	*	*	*	*	*	*
!	!	!	!	!	!LO:TUP:a:problem=klamra łukowa	!	!	!	!	!	!	!	!	!	!	!	!	!	!LO:TUP:b:problem=klamra łukowa	!	!	!	!	!	!LO:DY:rj	!	!	!	!	!	!	!	!	!	!
4G\	.	x x 1	4g\	.	12b\L	.	12gg'>\L	.	2G\	Sa-	2g\	Sa-	2d\	Sa-	2b\	Sa-	4GG/	.	8g/L	.	4g/	4dd\	.	4G\	p	4B\	.	4b\	.	4gg\	.	4gg\	.	4bb\	.
.	.	.	.	.	12cc\	.	12aa'>\	.	.	.	.	.	.	.	.	.	.	.	.	.	.	.	.	.	.	.	.	.	.	.	.	.	.	.	.
.	.	.	.	.	.	.	.	.	.	.	.	.	.	.	.	.	.	.	8g/J	.	.	.	.	.	.	.	.	.	.	.	.	.	.	.	.
.	.	.	.	.	12dd\J	.	12bb'>\J	.	.	.	.	.	.	.	.	.	.	.	.	.	.	.	.	.	.	.	.	.	.	.	.	.	.	.	.
!	!	!	!	!	!LO:TUP:a:problem=klamra łukowa	!	!	!	!	!	!	!	!	!	!	!	!	!	!LO:TUP:b:problem=klamra łukowa	!	!	!	!	!	!	!	!	!	!	!	!	!	!	!	!
4D\	.	x x 3	4d\	.	12b\L	.	12gg'>\L	.	.	.	.	.	.	.	.	.	2GGT>/	.	8g/L	.	4g/	4dd\	.	4G\	.	4B\	.	4b\	.	4gg\	.	4gg\	.	4bb\	.
.	.	.	.	.	12cc\	.	12aa'>\	.	.	.	.	.	.	.	.	.	.	.	.	.	.	.	.	.	.	.	.	.	.	.	.	.	.	.	.
.	.	.	.	.	.	.	.	.	.	.	.	.	.	.	.	.	.	.	8g/J	.	.	.	.	.	.	.	.	.	.	.	.	.	.	.	.
.	.	.	.	.	12dd\J	.	12bb'>\J	.	.	.	.	.	.	.	.	.	.	.	.	.	.	.	.	.	.	.	.	.	.	.	.	.	.	.	.
!	!	!	!	!	!	!	!LO:LB:g=original	!	!	!	!	!	!	!	!	!	!	!	!	!	!	!	!	!	!	!	!	!	!	!	!	!	!	!	!
!	!	!	!	!	!LO:TUP:a:problem=klamra łukowa	!	!	!	!	!	!	!	!	!	!	!	!	!	!LO:TUP:b:problem=klamra łukowa	!	!	!	!	!	!	!	!	!	!	!	!	!	!	!	!
4BB/	.	x x 1	4B\	.	12b\L	.	12gg'>\L	.	4G\	-ba-	4g\	-ba-	4d\	-ba-	4b\	-ba-	.	.	8g/L	.	4g/	4dd\	.	4G\	.	4B\	.	4b\	.	4gg\	.	4gg\	.	4bb\	.
.	.	.	.	.	12cc\	.	12aa'>\	.	.	.	.	.	.	.	.	.	.	.	.	.	.	.	.	.	.	.	.	.	.	.	.	.	.	.	.
.	.	.	.	.	.	.	.	.	.	.	.	.	.	.	.	.	.	.	8g/J	.	.	.	.	.	.	.	.	.	.	.	.	.	.	.	.
.	.	.	.	.	12dd\J	.	12bb'>\J	.	.	.	.	.	.	.	.	.	.	.	.	.	.	.	.	.	.	.	.	.	.	.	.	.	.	.	.
*	*	*	*	*	*	*	*2\right	*	*	*	*	*	*	*	*	*	*	*	*Xtremolo	*	*	*	*	*	*	*	*	*	*	*	*	*	*	*	*
=15	=15	=15	=15	=15	=15	=15	=15	=15	=15	=15	=15	=15	=15	=15	=15	=15	=15	=15	=15	=15	=15	=15	=15	=15	=15	=15	=15	=15	=15	=15	=15	=15	=15	=15	=15
*	*	*below	*	*	*	*	*	*	*	*	*	*	*	*	*	*	*	*	*	*	*	*	*	*	*	*	*	*	*	*	*	*	*	*	*
2GG/	.	1	2G/	.	2b\	.	2gg\	.	2G\	-oth.	4g\	-oth	2d\	-oth	2b\	-oth	2GG/	.	2g/	.	2g/	2dd\	.	2G\	.	2B\	.	2b\	.	2gg\	.	2gg\	.	2bb\	.
*	*	*	*	*	*	*	*	*	*	*	*	*	*	*Xij	*	*Xij	*	*	*	*	*	*	*	*	*	*	*	*	*	*	*	*	*	*	*
.	.	.	.	.	.	.	.	.	.	.	4r	.	.	.	.	.	.	.	.	.	.	.	.	.	.	.	.	.	.	.	.	.	.	.	.
2r	.	.	2r	.	2r	.	2r	.	2r	.	2r	.	2r	.	2r	.	2r	.	2r	.	2r	2r	.	2r	.	2r	.	2r	.	2r	.	2r	.	2r	.
==	==	==	==	==	==	==	==	==	==	==	==	==	==	==	==	==	==	==	==	==	==	==	==	==	==	==	==	==	==	==	==	==	==	==	==
*-	*-	*-	*-	*-	*-	*-	*-	*-	*-	*-	*-	*-	*-	*-	*-	*-	*-	*-	*-	*-	*-	*-	*-	*-	*-	*-	*-	*-	*-	*-	*-	*-	*-	*-	*-
!!!system-decoration: [(g1)],[(g2)],g3,[(g4)],[(g5)],g6
!!!RDF**kern: > = above
!!!RDF**kern: < = below
!!!ENC: Mateusz Solarz
!!!END: 2020-10-13
!!!EED: Jędrzej Mróz
!!!ESR: 2021-10-26
!!!YEC: Copyright 2022 Narodowy Instytut Fryderyka Chopina (https://polishscores.org)
!!!YEM: License CC-BY-4.0 (https://creativecommons.org/licenses/by/4.0)
